actions/22x22-light/tab-duplicate.svg

<svg xmlns="http://www.w3.org/2000/svg" viewBox="0 0 22 22">
 <defs id="defs3051">
   <style type="text/css" id="current-color-scheme">
     .ColorScheme-Text {
       color:#4d4d4d;
     }
     </style>
 </defs>
   <path
      style="fill:currentColor;fill-opacity:1;stroke:none"
      d="m5.6666667 5.5555556c-.8585156.9336711-1.7428445 2.4295466-2.6666667 3.5555555v.3559028.1770833 1.2447918 6.755208c0 .196978.158925.355903.3559028.355903h15.2881942c.196978 0 .355903-.158925.355903-.355903v-8.1770831-.3559028c-.923822-1.1260089-1.808151-2.6218844-2.666667-3.5555555h-1.777777-.420139-1.357639c-.578914.6295926-1.171195 1.512976-1.777778 2.3680555-.606583-.8550795-1.198864-1.7384629-1.7777778-2.3680555h-1.3576389-.4201389z"
      class="ColorScheme-Text" />
</svg>

<?xml version="1.0" encoding="UTF-8" standalone="no"?>
<svg
   xmlns:dc="http://purl.org/dc/elements/1.1/"
   xmlns:cc="http://creativecommons.org/ns#"
   xmlns:rdf="http://www.w3.org/1999/02/22-rdf-syntax-ns#"
   xmlns:svg="http://www.w3.org/2000/svg"
   xmlns="http://www.w3.org/2000/svg"
   xmlns:sodipodi="http://sodipodi.sourceforge.net/DTD/sodipodi-0.dtd"
   xmlns:inkscape="http://www.inkscape.org/namespaces/inkscape"
   viewBox="0 0 22 22"
   id="svg3197"
   version="1.1"
   inkscape:version="0.91 r13725"
   sodipodi:docname="tab-duplicate.svg">
  <metadata
     id="metadata3205">
    <rdf:RDF>
      <cc:Work
         rdf:about="">
        <dc:format>image/svg+xml</dc:format>
        <dc:type
           rdf:resource="http://purl.org/dc/dcmitype/StillImage" />
      </cc:Work>
    </rdf:RDF>
  </metadata>
  <sodipodi:namedview
     pagecolor="#ffffff"
     bordercolor="#666666"
     borderopacity="1"
     objecttolerance="10"
     gridtolerance="10"
     guidetolerance="10"
     inkscape:pageopacity="0"
     inkscape:pageshadow="2"
     inkscape:window-width="640"
     inkscape:window-height="480"
     id="namedview3203"
     showgrid="false"
     inkscape:zoom="28.954545"
     inkscape:cx="4.8524333"
     inkscape:cy="11"
     inkscape:current-layer="svg3197" />
  <defs
     id="defs3051">
    <style
       type="text/css"
       id="current-color-scheme">
      .ColorScheme-Text {
        color:#4d4d4d
      }
      </style>
  </defs>
  <path
     style="color:#4d4d4d;fill:currentColor;fill-opacity:1;stroke:none"
     class="ColorScheme-Text"
     d="M 5.6666667,5.5555556 C 4.8081511,6.4892267 3.9238222,7.9851022 3,9.1111111 l 0,0.3559028 0,0.1770833 0,1.2447918 0,6.755208 C 3,17.841075 3.158925,18 3.3559028,18 L 18.644097,18 C 18.841075,18 19,17.841075 19,17.644097 L 19,9.4670139 19,9.1111111 C 18.076178,7.9851022 17.191849,6.4892267 16.333333,5.5555556 l -1.777777,0 -0.420139,0 -1.357639,0 C 12.198864,6.1851482 11.606583,7.0685316 11,7.9236111 10.393417,7.0685316 9.801136,6.1851482 9.2222222,5.5555556 l -1.3576389,0 -0.4201389,0 -1.7777777,0 z"
     id="path3201"
     inkscape:connector-curvature="0" />
</svg>
